!!!COM: Messiaen, Olivier (Eugène Prosper Charles)
!!!OTL: Vingt Regards sur l'Enfant-Jésus (Twenty Gazes on the Christ Child) for Piano
!!!OMV: XVIII: Regard de l'onction terrible (Contemplation of the Awesome Anointing)
!!!example: 753
!!!work: Mes-20
**kern	**kern	**dynam
*part1	*part1	*part1
*staff2	*staff1	*
*I"Piano	*	*
*I'Pno.	*	*
*clefF4	*clefG2	*
*k[]	*k[]	*
*C:	*C:	*
*M2/4	*M2/4	*
*MM121	*MM121	*
=1	=	=
*8ba	*8va	*
[2AAAA [2DDD#X [2GGG#X	16bbb-XLL 16eeee 16aaaa	p
.	16aaa 16dddd#X 16gggg#X	.
.	16aaa-X 16ddddn 16ggggn	.
.	16gggnJJ 16cccc#X 16ffff#X	.
.	16ggg-XLL 16ccccn 16ffffn	.
.	16fff 16bbb- 16eeee	.
.	16eee 16bbb-X 16eeee-X	.
.	16eee-XJJ 16aaa- 16dddd	.
=2	=2	=2
!	!LO:TX:t=cresc.	!
2AAAA] 2DDD#] 2GGG#]	16dddLL 16ggg#X 16cccc#X	.
.	16ddd-X 16gggn 16ccccn	.
.	16ccc 16fff#X 16bbb	.
.	16bbnJJ 16fff# 16bbb-X	.
.	16bb-XLL 16eee 16aaa	.
.	16aan 16eee-X 16aaa-X	.
.	16aa-X 16dddn 16ggg	.
.	16ggJJ 16ccc#X 16fff#X	.
*	*X8va	*
=3	=3	=3
[2BBBB-X [2EEE [2AAA	16gg-XKL 16cccn 16fffn	.
.	8ff 8bbn 8eee	.
.	[16eenJk [16aa-X [16ddd-X	.
.	8eeL] 8aa-] 8ddd-]	.
.	[8ee-XJ [8aa- [8ddd-	.
=4	=4	=4
!!linebreak:original
4BBBB-_ 4EEE_ 4AAA_	8ee-] 8aa-] 8ddd-]	.
.	[4dd [4gg#X [4ccc#X	.
8.BBBB-L] 8.EEE] 8.AAA]	.	.
.	16ddLL] 16gg#] 16ccc#]	.
[16BBBBnJk [16FFF [16BBB-X	[16dd-XJJ [16ggn [16cccn	.
=5	=5	=5
2BBBBn_ 2FFF_ 2BBB-_	4dd-_ 4gg_ 4ccc_	.
.	16dd-KL] 16gg] 16ccc]	.
.	[8.ccJ [8.ff#X [8.bbn	.
=6	=6	=6
4BBBBn_ 4FFF_ 4BBB-_	4cc] 4ff#] 4bbn]	.
16BBBBnKL] 16FFF] 16BBB-]	[4b [4ffn [4bb-X	.
[8.BBBBnJ [8.FFF#X [8.BBBn	.	.
=7	=7	=7
2BBBBn_ 2FFF#_ 2BBBn_	4b] 4ffn] 4bb-]	.
!	!LO:TX:t=cresc. sempre	!
.	[4b-X [4ee [4aa	.
=8	=8	=8
*X8ba	*	*
8BBBn] 8FF#] 8BBn]	4b-_ 4ee_ 4aa_	.
[4.DD-X [4.GG [4.C	.	.
.	16b-KL] 16ee] 16aa]	.
.	[8.aJ [8.ee-X [8.aa-X	.
==	==	==
*-	*-	*-
!!!CDT: 1908/12/10-1992/04/27
!!!CBL: Avignon, France
!!!CDL: Paris, France
!!!CNT: French
!!!AGN: Instrumental; Keyboard
!!!MCN:
!!!MDT: 1945/03/26
!!!MGN:
!!!MLC: Paris, France
!!!MPD: 1945
!!!MPN: Loriod, Yvonne
!!!ODT: 1944
!!!PDT: 1947
!!!excerpt-start-measure: 1
!!!excerpt-end-measure: 8
!!!excerpt-start-time: 0:00
!!!excerpt-end-time: 0:14
!!!system-decoration: {(s1,s2)}
!!!ONB: Converted from MusicXML on 2020/01/19 and edited by Craig Stuart Sapp
!!!EEV: 2020/01/19
